X:1
T:The Two Sisters
M:4/4
L:1/4
K:C
 G/2| G G B B| A A d2| A/2A/2 A d3/2 d/2| A A d3/2| A/2| A/2A/2 A d3/2 c/2|\
 B A G3/2||
